public/assets/images/field-d04.svg

<svg width="18" height="18" viewBox="0 0 18 18" fill="none" xmlns="http://www.w3.org/2000/svg">
<g clip-path="url(#clip0)">
<path d="M8.62642 5.12501L8.62641 5.12375C8.62598 5.0171 8.64667 4.91141 8.68729 4.81279C8.7279 4.71418 8.78764 4.62457 8.86306 4.54916C8.93848 4.47374 9.02808 4.414 9.1267 4.37338C9.22532 4.33277 9.331 4.31208 9.43765 4.31252L9.44017 4.31251C9.54682 4.31208 9.65251 4.33277 9.75113 4.37338C9.84975 4.414 9.93935 4.47374 10.0148 4.54916C10.0902 4.62457 10.1499 4.71418 10.1905 4.81279C10.2312 4.91141 10.2518 5.0171 10.2514 5.12375V5.12501L10.2514 9.22901L10.2514 9.23109C10.2522 9.34382 10.2292 9.45544 10.184 9.55871C10.1388 9.66197 10.0723 9.75457 9.98898 9.83047L9.98805 9.83134L7.67533 11.9551C7.6753 11.9551 7.67527 11.9551 7.67524 11.9552C7.51617 12.1008 7.30576 12.1773 7.09028 12.1679C6.87476 12.1584 6.67182 12.0638 6.5261 11.9047C6.38039 11.7456 6.30383 11.5352 6.31328 11.3196C6.32273 11.1041 6.41741 10.9012 6.57649 10.7554L6.57746 10.7546L8.52596 8.95455L8.62641 8.86176V8.72501L8.62642 5.12501ZM10.5639 9.22901V5.12501V9.22901Z" fill="#4F66EE" stroke="white" stroke-width="0.625"/>
<path d="M4.17349 1.77661C5.60214 0.822013 7.28178 0.3125 9 0.3125C11.3041 0.3125 13.5138 1.22779 15.143 2.85701C16.7722 4.48623 17.6875 6.69593 17.6875 9C17.6875 10.7182 17.178 12.3979 16.2234 13.8265C15.2688 15.2552 13.912 16.3687 12.3246 17.0262C10.7371 17.6837 8.99037 17.8558 7.30516 17.5206C5.61995 17.1854 4.07198 16.358 2.85701 15.143C1.64205 13.928 0.814641 12.3801 0.479432 10.6948C0.144223 9.00964 0.316264 7.26287 0.973801 5.67544C1.63134 4.08801 2.74484 2.7312 4.17349 1.77661ZM5.07629 14.8723C6.23771 15.6483 7.60317 16.0625 9 16.0625C9.92746 16.0625 10.8458 15.8798 11.7027 15.5249C12.5596 15.17 13.3381 14.6498 13.9939 13.9939C14.6498 13.3381 15.17 12.5596 15.5249 11.7027C15.8798 10.8458 16.0625 9.92746 16.0625 9C16.0625 7.60317 15.6483 6.23771 14.8723 5.07629C14.0962 3.91486 12.9932 3.00964 11.7027 2.4751C10.4122 1.94056 8.99217 1.8007 7.62218 2.0732C6.25219 2.34571 4.99377 3.01835 4.00606 4.00606C3.01835 4.99377 2.34572 6.25218 2.07321 7.62217C1.8007 8.99217 1.94056 10.4122 2.4751 11.7027C3.00965 12.9932 3.91487 14.0962 5.07629 14.8723Z" fill="#4F66EE" stroke="white" stroke-width="0.625"/>
</g>
<defs>
<clipPath id="clip0">
<rect width="18" height="18" fill="white"/>
</clipPath>
</defs>
</svg>

<svg width="18" height="18" fill="none" xmlns="http://www.w3.org/2000/svg"><g clip-path="url(#clip0)" fill="#4F66EE" stroke="#fff" stroke-width=".625"><path d="M8.626 5.125v-.001a.808.808 0 01.812-.811h.002a.808.808 0 01.811.81v4.108a.803.803 0 01-.262.6h-.001l-2.313 2.124s0 0 0 0a.814.814 0 01-1.099-1.2h.001l1.949-1.8.1-.093V5.125zm1.938 4.104V5.125v4.104z"/><path d="M4.173 1.777a8.687 8.687 0 119.654 14.446A8.687 8.687 0 014.173 1.777zm.903 13.095a7.063 7.063 0 107.848-11.745 7.063 7.063 0 00-7.848 11.745z"/></g><defs><clipPath id="clip0"><path fill="#fff" d="M0 0h18v18H0z"/></clipPath></defs></svg>
